icons/diff-24.svg

<svg xmlns="http://www.w3.org/2000/svg" width="24" height="24" viewBox="0 0 24 24">
  <defs/>
  <path d="M12.25,3.5 C12.664,3.5 13,3.836 13,4.25 L13,8.5 L17.25,8.5 C17.664,8.5 18,8.836 18,9.25 C18,9.664 17.664,10 17.25,10 L13,10 L13,14.25 C13,14.664 12.664,15 12.25,15 C11.836,15 11.5,14.664 11.5,14.25 L11.5,10 L7.25,10 C6.836,10 6.5,9.664 6.5,9.25 C6.5,8.836 6.836,8.5 7.25,8.5 L11.5,8.5 L11.5,4.25 C11.5,3.836 11.836,3.5 12.25,3.5 Z M6.562,19.25 C6.562,18.836 6.898,18.5 7.312,18.5 L17.25,18.5 C17.664,18.5 18,18.836 18,19.25 C18,19.664 17.664,20 17.25,20 L7.312,20 C6.898,20 6.562,19.664 6.562,19.25 Z"/>
</svg>

<svg xmlns="http://www.w3.org/2000/svg" width="24" height="24" viewBox="0 0 24 24"><path fill-rule="evenodd" d="M12.25 3.5a.75.75 0 01.75.75V8.5h4.25a.75.75 0 010 1.5H13v4.25a.75.75 0 01-1.5 0V10H7.25a.75.75 0 010-1.5h4.25V4.25a.75.75 0 01.75-.75zM6.562 19.25a.75.75 0 01.75-.75h9.938a.75.75 0 010 1.5H7.312a.75.75 0 01-.75-.75z"/></svg>
